icons/evolvere-blue-folders-flat-vivid-dark-fallback/apps/64/firefox.svg

<?xml version="1.0" encoding="UTF-8" standalone="no"?>
<!-- Created with Inkscape (http://www.inkscape.org/) -->

<svg
   xmlns:dc="http://purl.org/dc/elements/1.1/"
   xmlns:cc="http://creativecommons.org/ns#"
   xmlns:rdf="http://www.w3.org/1999/02/22-rdf-syntax-ns#"
   xmlns:svg="http://www.w3.org/2000/svg"
   xmlns="http://www.w3.org/2000/svg"
   xmlns:sodipodi="http://sodipodi.sourceforge.net/DTD/sodipodi-0.dtd"
   xmlns:inkscape="http://www.inkscape.org/namespaces/inkscape"
   width="64"
   height="64"
   id="svg13094"
   version="1.1"
   inkscape:version="0.91+devel r"
   sodipodi:docname="firefox.svg">
  <sodipodi:namedview
     id="base"
     pagecolor="#ffffff"
     bordercolor="#666666"
     borderopacity="1.0"
     inkscape:pageopacity="1"
     inkscape:pageshadow="2"
     inkscape:zoom="8.0000004"
     inkscape:cx="40.201798"
     inkscape:cy="37.147278"
     inkscape:document-units="px"
     inkscape:current-layer="svg13094"
     showgrid="false"
     inkscape:snap-bbox="true"
     inkscape:bbox-paths="true"
     inkscape:bbox-nodes="true"
     inkscape:snap-bbox-edge-midpoints="true"
     inkscape:snap-bbox-midpoints="true"
     inkscape:object-paths="true"
     inkscape:snap-intersection-paths="true"
     inkscape:object-nodes="true"
     inkscape:snap-smooth-nodes="true"
     inkscape:snap-midpoints="true"
     inkscape:snap-object-midpoints="true"
     inkscape:snap-center="true"
     showguides="true"
     inkscape:guide-bbox="true"
     inkscape:window-width="1920"
     inkscape:window-height="1023"
     inkscape:window-x="-10"
     inkscape:window-y="35"
     inkscape:window-maximized="1"
     inkscape:snap-global="true"
     fit-margin-top="0"
     fit-margin-left="0"
     fit-margin-right="0"
     fit-margin-bottom="0"
     showborder="true"
     inkscape:showpageshadow="false"
     inkscape:snap-page="true">
    <inkscape:grid
       type="xygrid"
       id="grid3075"
       empspacing="5"
       visible="true"
       enabled="true"
       snapvisiblegridlinesonly="true"
       originx="1.6362304e-08px"
       originy="18px" />
  </sodipodi:namedview>
  <defs
     id="defs13096" />
  <metadata
     id="metadata13099">
    <rdf:RDF>
      <cc:Work
         rdf:about="">
        <dc:format>image/svg+xml</dc:format>
        <dc:type
           rdf:resource="http://purl.org/dc/dcmitype/StillImage" />
        <dc:title></dc:title>
      </cc:Work>
    </rdf:RDF>
  </metadata>
  <path
     inkscape:connector-curvature="0"
     style="color:#000000;fill:#317fdd;fill-opacity:1;fill-rule:nonzero;stroke:none;stroke-width:2.28571415;marker:none;visibility:visible;display:inline;overflow:visible;enable-background:accumulate"
     d="m 0,4 0,30 0,28 2,2 30,0 30,0 2,-2 L 64,34 64,4 32,4 0,4 z"
     id="path3424" />
  <path
     style="color:#000000;fill:#f28624;fill-opacity:1;fill-rule:nonzero;stroke:none;stroke-width:2.28571415;marker:none;visibility:visible;display:inline;overflow:visible;enable-background:accumulate"
     d="m 0,4 0,30 0,28 2,2 30,0 30,0 2,-2 0,-28 0,-30 -19,0 c 5.303435,1.5185759 12.688489,5.2459622 15.40625,15.125 0,0 -2.761419,-4.235253 -6.4375,-5.1875 5.79059,7.805415 5.606706,13.277126 3.59375,21.375 -0.167976,0.507151 0.112501,-5.102682 -3.34375,-9.09375 1.442622,9.718805 0.880788,17.001755 -7.28125,22.0625 C 46.618203,48.482374 50.865783,43.233981 51,40 37.457332,56.81852 22.003758,50.473767 17.34375,43.6875 c 4.856632,1.746612 9.457578,0.309391 12.28125,-1.625 2.849671,-1.952433 4.548677,-3.368683 6.0625,-3.03125 1.51316,0.338768 2.518946,-1.180849 1.34375,-2.53125 -1.176529,-1.35307 -4.041367,-3.232385 -7.90625,-2.21875 -2.725683,0.715625 -6.093933,3.748451 -11.25,0.6875 C 13.476177,32.356152 13.5,30.226736 13.5,28.875 c 0,-1.352403 0.523361,-2.817829 2,-3.1875 1.160277,-0.139255 2.559411,-0.106827 4.53125,1.25 0.573268,-2.774012 -0.02784,-3.709317 -0.84375,-5.625 1.571151,-3.286796 6.494378,-4.680761 6.875,-4.96875 0.689254,-0.522519 1.233444,-0.83788 1.46875,-1.625 C 27.641235,14.352251 27.650424,13.20601 27,12.6875 c -0.650423,-0.51851 -2.866414,-0.117366 -5.71875,0.15625 -2.625029,0.251906 -4.26523,-3.1721207 -4.8125,-4 0.177313,-1.0537252 0.427211,-1.9929972 0.8125,-2.875 C 17.646088,5.219262 18.6024,4.5431544 19,4 z"
     id="path6171"
     inkscape:connector-curvature="0"
     sodipodi:nodetypes="ccccccccccccccccccccccscccccsccccc" />
  <path
     style="color:#000000;fill:#002149;fill-opacity:0.0608229;fill-rule:nonzero;stroke:none;stroke-width:2.28571415;marker:none;visibility:visible;display:inline;overflow:visible;enable-background:accumulate"
     d="m 18.03125,5 c -0.300128,0.303088 -0.585216,0.6302339 -0.75,0.96875 -0.385289,0.8820028 -0.635187,1.8212748 -0.8125,2.875 0.356912,0.5399161 1.180877,2.178943 2.4375,3.1875 -0.705196,-0.869956 -1.185438,-1.806195 -1.4375,-2.1875 0.177313,-1.0537252 0.427211,-1.9929972 0.8125,-2.875 C 18.646088,6.219262 19.6024,5.5431544 20,5 z M 46,5 c 2.983182,0.8541989 6.619455,2.4212972 9.71875,5.375 C 53.325719,7.7439728 50.480853,6.0799061 47.84375,5 z m -18.53125,8.5 c 0.136669,0.486117 0.129866,0.994269 0.0625,1.21875 -0.235306,0.78712 -0.779496,1.102481 -1.46875,1.625 -0.380622,0.287989 -5.303849,1.681954 -6.875,4.96875 0.81591,1.915683 1.417018,2.850988 0.84375,5.625 -1.971839,-1.356827 -3.370973,-1.389255 -4.53125,-1.25 -1.476639,0.369671 -2,1.835097 -2,3.1875 0,1.045698 0.03248,2.534836 2.0625,4.375 C 14.495548,31.869501 14.5,30.719835 14.5,29.875 c 0,-1.352403 0.523361,-2.817829 2,-3.1875 1.160277,-0.139255 2.559411,-0.106827 4.53125,1.25 0.573268,-2.774012 -0.02784,-3.709317 -0.84375,-5.625 1.571151,-3.286796 6.494378,-4.680761 6.875,-4.96875 0.689254,-0.522519 1.233444,-0.83788 1.46875,-1.625 C 28.641235,15.352251 28.650424,14.20601 28,13.6875 27.880708,13.592402 27.687633,13.539688 27.46875,13.5 z m 31.4375,3.78125 c 0.924481,1.00966 1.5,1.84375 1.5,1.84375 -0.04492,-0.163303 -0.108805,-0.308791 -0.15625,-0.46875 -0.36854,-0.425371 -0.830563,-0.905417 -1.34375,-1.375 z m -3.6875,9.9375 c 0.0237,0.159694 0.0399,0.31037 0.0625,0.46875 2.324125,3.762835 2.133053,8.072436 2.28125,7.625 0.187582,-0.75462 0.347539,-1.474477 0.5,-2.1875 -0.40506,-1.794883 -1.206327,-4.015454 -2.84375,-5.90625 z m -18.0625,9.46875 c 0.931004,1.298531 -0.02583,2.666793 -1.46875,2.34375 -1.513823,-0.337433 -3.212829,1.078817 -6.0625,3.03125 -2.823672,1.934391 -7.424618,3.371612 -12.28125,1.625 0.53026,0.772205 1.208948,1.522705 2,2.25 -0.372474,-0.415145 -0.708749,-0.825858 -1,-1.25 4.856632,1.746612 9.457578,0.309391 12.28125,-1.625 2.849671,-1.952433 4.548677,-3.368683 6.0625,-3.03125 1.51316,0.338768 2.518946,-1.180849 1.34375,-2.53125 -0.224427,-0.258103 -0.532486,-0.539833 -0.875,-0.8125 z M 52,41 c -0.682141,0.847145 -1.372286,1.611237 -2.0625,2.34375 -1.276474,2.606455 -3.22094,5.07667 -3,4.9375 1.282606,-0.79526 2.352287,-1.656661 3.28125,-2.5625 C 51.114454,44.169174 51.941892,42.400114 52,41 z"
     id="path3398"
     inkscape:connector-curvature="0"
     sodipodi:nodetypes="ccccccccccccccccccscscccccsccccccccccccccccccccccccc" />
  <path
     id="path3402"
     d="M 2,0 0,1 0,4 32,4 64,4 64,1 62,0 32,0 2,0 z"
     style="color:#000000;fill:#dcab63;fill-opacity:1;fill-rule:nonzero;stroke:none;marker:none;visibility:visible;display:inline;overflow:visible;enable-background:accumulate"
     inkscape:connector-curvature="0" />
  <g
     id="g3043"
     inkscape:export-filename="folder.png"
     inkscape:export-xdpi="90"
     inkscape:export-ydpi="90"
     transform="translate(-0.62500009,0.082283)" />
  <g
     id="scalable"
     transform="matrix(1.0385892,0,0,1.0385892,1214.7222,1878.8121)"
     inkscape:label="#g3701"
     style="fill:#ffffff" />
  <path
     style="color:#000000;fill:#69c2ff;fill-opacity:1;fill-rule:nonzero;stroke:none;marker:none;visibility:visible;display:inline;overflow:visible;enable-background:accumulate;stroke-width:2.28571415"
     d="M 19 0 L 19 4 L 32 4 L 45 4 L 45 0 L 32 0 L 19 0 z "
     id="path5353" />
  <path
     id="path5358"
     d="M 2,0 0,1 0,4 19,4 19,0 2,0 z M 45,0 45,4 64,4 64,1 62,0 45,0 z"
     style="color:#000000;fill:#ffc240;fill-opacity:1;fill-rule:nonzero;stroke:none;marker:none;visibility:visible;display:inline;overflow:visible;enable-background:accumulate"
     inkscape:connector-curvature="0" />
  <path
     style="fill:#ffd044;fill-opacity:1;fill-rule:nonzero"
     d="M 0,3 0,6 2,4 Z"
     id="path4298"
     inkscape:connector-curvature="0"
     sodipodi:nodetypes="cccc" />
  <path
     d="M 64,6 62,4 64,3 z"
     id="path3028"
     style="fill:#f9a633;fill-opacity:1"
     inkscape:connector-curvature="0" />
</svg>

<svg xmlns="http://www.w3.org/2000/svg" viewBox="0 0 64 64"><g color="#000"><path d="m0 4v30 28l2 2h30 30l2-2v-28-30h-32-32" fill="#317fdd"/><path d="m0 4v30 28l2 2h30 30l2-2v-28-30h-19c5.303 1.519 12.688 5.246 15.406 15.13 0 0-2.761-4.235-6.438-5.188 5.791 7.805 5.607 13.277 3.594 21.375-.168.507.113-5.103-3.344-9.09 1.443 9.719.881 17-7.281 22.06-.319.201 3.928-5.05 4.063-8.281-13.543 16.819-28.996 10.474-33.656 3.688 4.857 1.747 9.458.309 12.281-1.625 2.85-1.952 4.549-3.369 6.06-3.03 1.513.339 2.519-1.181 1.344-2.531-1.177-1.353-4.04-3.232-7.906-2.219-2.726.716-6.094 3.748-11.25.688-4.399-2.613-4.375-4.742-4.375-6.094 0-1.352.523-2.818 2-3.188 1.16-.139 2.559-.107 4.531 1.25.573-2.774-.028-3.709-.844-5.625 1.571-3.287 6.494-4.681 6.875-4.969.689-.523 1.233-.838 1.469-1.625.11-.366.119-1.513-.531-2.031-.65-.519-2.866-.117-5.719.156-2.625.252-4.265-3.172-4.813-4 .177-1.054.427-1.993.813-2.875.365-.749 1.321-1.426 1.719-1.969z" fill="#f28624"/><path d="m18.03 5c-.3.303-.585.63-.75.969-.385.882-.635 1.821-.813 2.875.357.54 1.181 2.179 2.438 3.188-.705-.87-1.185-1.806-1.438-2.188.177-1.054.427-1.993.813-2.875.365-.749 1.321-1.426 1.719-1.969zm27.969 0c2.983.854 6.619 2.421 9.719 5.375-2.393-2.631-5.238-4.295-7.875-5.375zm-18.531 8.5c.137.486.13.994.063 1.219-.235.787-.779 1.102-1.469 1.625-.381.288-5.304 1.682-6.875 4.969.816 1.916 1.417 2.851.844 5.625-1.972-1.357-3.371-1.389-4.531-1.25-1.477.37-2 1.835-2 3.188 0 1.046.032 2.535 2.063 4.375-1.067-1.38-1.063-2.53-1.063-3.375 0-1.352.523-2.818 2-3.188 1.16-.139 2.559-.107 4.531 1.25.573-2.774-.028-3.709-.844-5.625 1.571-3.287 6.494-4.681 6.875-4.969.689-.523 1.233-.838 1.469-1.625.11-.366.119-1.513-.531-2.031-.119-.095-.312-.148-.531-.188m31.438 3.781c.924 1.01 1.5 1.844 1.5 1.844-.045-.163-.109-.309-.156-.469-.369-.425-.831-.905-1.344-1.375m-3.688 9.938c.024.16.04.31.063.469 2.324 3.763 2.133 8.07 2.281 7.625.188-.755.348-1.474.5-2.188-.405-1.795-1.206-4.02-2.844-5.906m-18.06 9.469c.931 1.299-.026 2.667-1.469 2.344-1.514-.337-3.213 1.079-6.06 3.03-2.824 1.934-7.425 3.372-12.281 1.625.53.772 1.209 1.523 2 2.25-.372-.415-.709-.826-1-1.25 4.857 1.747 9.458.309 12.281-1.625 2.85-1.952 4.549-3.369 6.06-3.03 1.513.339 2.519-1.181 1.344-2.531-.224-.258-.532-.54-.875-.813m14.844 4.313c-.682.847-1.372 1.611-2.063 2.344-1.276 2.606-3.221 5.077-3 4.938 1.283-.795 2.352-1.657 3.281-2.563.896-1.55 1.723-3.319 1.781-4.719" fill="#002149" fill-opacity=".061"/><path d="m2 0l-2 1v3h32 32v-3l-2-1h-30-30" fill="#dcab63"/><path d="m19 0v4h13 13v-4h-13-13" fill="#69c2ff"/><path d="m2 0l-2 1v3h19v-4h-17m43 0v4h19v-3l-2-1h-17" fill="#ffc240"/></g><path d="m0 3v3l2-2" fill="#ffd044"/><path d="m64 6l-2-2 2-1z" fill="#f9a633"/></svg>
